X:4012
T:Dingle Regatta
R:Jig
C:Trad.
O:Ireland
Z:Paul Hardy's Session Tunebook 2022 (see www.paulhardy.net). Creative Commons cc by-nc-sa licenced.
M:6/8
L:1/8
Q:3/8=110
K:G
"G"d^cd e2d|BAB d2B|"D"A2A AGA|"G"B2A G2d|d^cd e2d|BAB d2B|"D"A2A ABA|"G"G3-G3:|
|:"D"d3 def|"G"g3 gfg|"D"a2a aga|"G"b2a gfe|"D"d3 def|"G"g3 gfg|"D"a2g f2e|def "G"g3:|
|:"G"g3 d3|BdB G3|"D"FGA DEF|"G"G2B "D"def|"G"g3 d3|BdB G3|"D"FGA DEF|"G"G3-G3:|

